dist/img/email_2.svg

<svg width="16" height="16" viewBox="0 0 16 16" fill="none" xmlns="http://www.w3.org/2000/svg">
<path d="M7.5 1C3.91406 1 1 3.91406 1 7.5C1 11.0859 3.91406 14 7.5 14C8.71875 14 9.86328 13.6641 10.8398 13.0781L10.3242 12.2188C9.5 12.7148 8.53516 13 7.5 13C4.45703 13 2 10.543 2 7.5C2 4.45703 4.45703 2 7.5 2C10.543 2 13 4.45703 13 7.5V8.60156C13 9.375 12.375 10 11.6055 10H11.3984C10.6289 10 10 9.375 10 8.60156V6.39844C10 5.08203 8.91797 4 7.60156 4H7.39844C6.08203 4 5 5.08203 5 6.39844V8.60156C5 9.91797 6.08203 11 7.39844 11H7.60156C8.375 11 9.0625 10.6211 9.5 10.0469C9.94141 10.6211 10.625 11 11.3984 11H11.6055C12.918 11 14 9.92188 14 8.60156V7.5C14 3.91406 11.0859 1 7.5 1ZM7.39844 5H7.60156C8.37109 5 9 5.625 9 6.39844V8.60156C9 9.375 8.37109 10 7.60156 10H7.39844C6.625 10 6 9.375 6 8.60156V6.39844C6 5.625 6.625 5 7.39844 5Z" fill="#898C9B"/>
</svg>

<svg xmlns="http://www.w3.org/2000/svg" fill="none" viewBox="0 0 16 16"><path fill="#898C9B" d="M7.5 1A6.505 6.505 0 001 7.5a6.505 6.505 0 009.84 5.578l-.516-.86A5.455 5.455 0 017.5 13 5.493 5.493 0 012 7.5C2 4.457 4.457 2 7.5 2S13 4.457 13 7.5v1.102C13 9.375 12.375 10 11.605 10h-.207A1.4 1.4 0 0110 8.602V6.398A2.409 2.409 0 007.602 4h-.204A2.409 2.409 0 005 6.398v2.204A2.409 2.409 0 007.398 11h.204a2.39 2.39 0 001.898-.953 2.395 2.395 0 001.898.953h.207A2.406 2.406 0 0014 8.602V7.5C14 3.914 11.086 1 7.5 1zm-.102 4h.204A1.4 1.4 0 019 6.398v2.204A1.4 1.4 0 017.602 10h-.204A1.397 1.397 0 016 8.602V6.398C6 5.625 6.625 5 7.398 5z"/></svg>
